X:1
T: Water of Feugh
C:C Sherrit
R:Strathspey
Q: 128
K:G
M:4/4
L:1/16
D2|:G,3D B,3D EC3 A,3C|D3F ((3A2B2c2) Bd3 g3f|((3e2f2g2) ((3c2d2e2) ((3d2f2g2) ((3B2c2d2) |eE3 A3G ((3F2E2D2) ((3C2B,2A,2) |
G,3D B,3D EC3 A,3C|D3F ((3A2B2c2) Bd3 g3f|((3e2f2g2) ((3c2d2e2) ((3e2d2c2) ((3B2A2G2) |1((3F2G2A2) D3d BG3 G3D:|2((3F2G2A2) D3d BG3 G3c|
|:Bd3 G3B ce3 A3g|fgag f3d g3d Bd3|((3e2d2c2) ((3g2f2e2) ((3d2B2A2) ((3G2A2B2) |cE3 A3G ((3F2E2D2) ((3D2d2c2) |
Bd3 G3B ce3 A3g|fgag f3d g3d Bd3|((3e2f2g2) ((3c2d2e2) ((3e2d2c2) ((3B2A2G2) |1((3F2E2D2) ((3C2B,2A,2) B,G,3 G,3A:|2((3F2E2D2) ((3C2B,2A,2) B,G,3 G,2||
